OBS Studio/Fluent Dark Grey/checkbox/checkbox_checked_disabled.svg

<svg width="20" height="20" viewBox="0 0 20 20" xmlns="http://www.w3.org/2000/svg"><rect width="20" height="20" rx="3" fill="#fff" fill-opacity=".1581"/><path d="m5.002 10.498c0-0.1367 0.04883-0.2539 0.14649-0.3515 0.09765-0.0977 0.21484-0.1465 0.35156-0.1465s0.25391 0.0488 0.35156 0.1465l2.6484 2.6484 5.6484-5.6484c0.0977-0.09765 0.2149-0.14648 0.3516-0.14648 0.0703 0 0.1348 0.01367 0.1934 0.04102 0.0625 0.02343 0.1152 0.05859 0.1582 0.10546 0.0468 0.04297 0.0839 0.09571 0.1113 0.15821 0.0273 0.05859 0.041 0.12304 0.041 0.19336 0 0.13672-0.0508 0.25586-0.1523 0.35742l-6 6c-0.09765 0.0976-0.21484 0.1465-0.35156 0.1465s-0.25391-0.0489-0.35156-0.1465l-3-3c-0.09766-0.0977-0.14649-0.2168-0.14649-0.3575z" fill="#fff" fill-opacity=".5302"/></svg>

<svg width="20" height="20" viewBox="0 0 20 20" fill="none" xmlns="http://www.w3.org/2000/svg">
<rect width="20" height="20" rx="3" fill="white" fill-opacity="0.1581"/>
<path d="M5.00195 10.498C5.00195 10.3613 5.05078 10.2441 5.14844 10.1465C5.24609 10.0488 5.36328 10 5.5 10C5.63672 10 5.75391 10.0488 5.85156 10.1465L8.5 12.7949L14.1484 7.14648C14.2461 7.04883 14.3633 7 14.5 7C14.5703 7 14.6348 7.01367 14.6934 7.04102C14.7559 7.06445 14.8086 7.09961 14.8516 7.14648C14.8984 7.18945 14.9355 7.24219 14.9629 7.30469C14.9902 7.36328 15.0039 7.42773 15.0039 7.49805C15.0039 7.63477 14.9531 7.75391 14.8516 7.85547L8.85156 13.8555C8.75391 13.9531 8.63672 14.002 8.5 14.002C8.36328 14.002 8.24609 13.9531 8.14844 13.8555L5.14844 10.8555C5.05078 10.7578 5.00195 10.6387 5.00195 10.498Z" fill="white" fill-opacity="0.5302"/>
</svg>
